!!!COM: Palestrina, Giovanni Perluigi da
!!!OPR: In semidupl. maj. (I)
!!!OTL: Agnus
**kern	**kern	**kern	**kern	**kern
*Ibass	*Itenor	*Itenor	*Icalto	*Icant
!Bassus	!Tenor 2	!Tenor 1	!Altus	!Cantus
*clefF4	*clefGv2	*clefGv2	*clefG2	*clefG2
*k[b-]	*k[b-]	*k[b-]	*k[b-]	*k[b-]
*F:ion	*F:ion	*F:ion	*F:ion	*F:ion
*M4/2	*M4/2	*M4/2	*M4/2	*M4/2
=1	=1	=1	=1	=1
0r	0r	0r	0B-	0r
=2	=2	=2	=2	=2
1r	0F	0r	1c	0r
[1BB-	.	.	1d	.
=3	=3	=3	=3	=3
1BB-]	1G	0r	2B-	0r
.	.	.	2d	.
1C	1A	.	2.c	.
.	.	.	4B-	.
=4	=4	=4	=4	=4
1D	1F	0r	4A	1r
.	.	.	4G	.
.	.	.	2A	.
2.BB-	[1B-	.	[1d	[1f
4C	.	.	.	.
=5	=5	=5	=5	=5
4D	2B-]	0r	2d]	1f]
4E	.	.	.	.
1F	2A	.	2c	.
.	1G	.	1c	1g
2E	.	.	.	.
=6	=6	=6	=6	=6
1F	2F	0r	2r	1a
.	2A	.	2c	.
[1BB-	2.B-	.	2.d	1f
.	4A	.	4c	.
=7	=7	=7	=7	=7
1BB-]	2G	0r	2B-	1.b-
.	2F	.	2.d	.
1r	2G	.	.	.
.	.	.	4e	.
.	2A	.	[2f	2a
=8	=8	=8	=8	=8
2r	2B-	1r	2f]	1g
2C	4c	.	2e	.
.	4B-	.	.	.
2.D	4A	[1F	2f	1f
.	4G	.	.	.
.	4F	.	2d	.
4C	4E	.	.	.
=9	=9	=9	=9	=9
2BB-	4D	1F]	2.f	0r
.	4E	.	.	.
2AA	1F	.	.	.
.	.	.	4e	.
2BB-	.	1G	2d	.
2C	2E	.	[2c	.
=10	=10	=10	=10	=10
2FF	4F	1A	4c]	1f
.	4G	.	4B-	.
2.F	4A	.	4A	.
.	4B-	.	4F	.
.	2c	1F	1f	1a
4E	.	.	.	.
2D	[2d	.	.	.
=11	=11	=11	=11	=11
4GG	2d]	1.B-	1d	1g
4AA	.	.	.	.
4BB-	2D	.	.	.
4C	.	.	.	.
4D	1F	.	1r	1f
4E	.	.	.	.
4F	.	2A	.	.
4D	.	.	.	.
=12	=12	=12	=12	=12
1E-	2r	1G	1B-	1r
.	2G	.	.	.
2D	2A	1F	1d	1f
2BB-	2B-	.	.	.
=13	=13	=13	=13	=13
2F	1A	0r	1c	1a
2F	.	.	.	.
1G	2r	.	2.B-	1g
.	2B-	.	.	.
.	.	.	8A	.
.	.	.	8G	.
=14	=14	=14	=14	=14
2.D	1d	1F	1A	1f
4E	.	.	.	.
2F	1c	1A	1r	1r
2FF	.	.	.	.
=15	=15	=15	=15	=15
2GG	2B-	1G	2r	0r
4GG	2.d	.	2B-	.
4AA	.	.	.	.
4BB-	.	1F	1d	.
4C	4c	.	.	.
4D	[2B-	.	.	.
4E	.	.	.	.
=16	=16	=16	=16	=16
1F	2B-]	1r	1c	0r
.	4A	.	.	.
.	4G	.	.	.
2r	2.A	1F	4c	.
.	.	.	4B-	.
2FF	.	.	4A	.
.	4B-	.	4G	.
=17	=17	=17	=17	=17
4FF	1c	1A	2F	0r
4GG	.	.	.	.
4AA	.	.	1f	.
4BB-	.	.	.	.
2C	1c	1G	.	.
2C	.	.	2e	.
=18	=18	=18	=18	=18
2.D	2A	1F	1f	0r
.	2F	.	.	.
4C	.	.	.	.
4D	4F	1r	2r	.
4E	4G	.	.	.
2F	4A	.	2c	.
.	4B-	.	.	.
=19	=19	=19	=19	=19
1C	1c	0r	4c	1g
.	.	.	4d	.
.	.	.	4e	.
.	.	.	4f	.
1r	4G	.	2g	1b-
.	4A	.	.	.
.	4B-	.	4d	.
.	4c	.	4e	.
=20	=20	=20	=20	=20
0r	4d	0r	4f	1a
.	4e	.	4g	.
.	1f	.	1a	.
.	.	.	.	1cc
.	2e	.	2g	.
=21	=21	=21	=21	=21
0r	2d	0r	2f	2b-
.	2c	.	2e	2.a
.	1B-	.	1d	.
.	.	.	.	8g
.	.	.	.	8f
.	.	.	.	2g
=22	=22	=22	=22	=22
2r	2.A	0r	2e	0a
2FF	.	.	1f	.
.	4B-	.	.	.
4FF	2c	.	.	.
4GG	.	.	.	.
4AA	2C	.	4e	.
4BB-	.	.	4d	.
=23	=23	=23	=23	=23
1C	4C	1G	1e	0r
.	4D	.	.	.
.	4E	.	.	.
.	4F	.	.	.
4GG	2G	1B-	1d	.
4AA	.	.	.	.
4BB-	4D	.	.	.
4C	4E	.	.	.
=24	=24	=24	=24	=24
4D	4F	1A	2r	0r
4E	4G	.	.	.
1F	1A	.	4F	.
.	.	.	4G	.
.	.	1c	4A	.
.	.	.	4B-	.
2E	2G	.	2c	.
=25	=25	=25	=25	=25
2D	2F	2B-	2d	0r
2C	2E	2.A	2e	.
1BB-	2.D	.	2f	.
.	.	8G	.	.
.	.	8F	.	.
.	.	2G	[2d	.
.	4E	.	.	.
=26	=26	=26	=26	=26
1AA	2F	0A	4d]	0r
.	.	.	8c	.
.	.	.	8B-	.
.	2E	.	2c	.
2r	1D	.	4F	.
.	.	.	4G	.
[2F	.	.	4A	.
.	.	.	4F	.
=27	=27	=27	=27	=27
2F]	1C	0r	1G	2r
2E	.	.	.	1cc
2F	2r	.	2A	.
2D	[2F	.	2F	2b
=28	=28	=28	=28	=28
1C	2F]	0r	2G	2.cc
.	2E	.	1c	.
.	.	.	.	4b-
1r	2F	.	.	2a
.	2G	.	2B-	2g
=29	=29	=29	=29	=29
1r	2A	0r	2c	1.f
.	4B-	.	4d	.
.	4c	.	4e	.
2r	2d	.	4f	.
.	.	.	4d	.
[2C	2c	.	[2e	2g
=30	=30	=30	=30	=30
2C]	2.c	0r	4e]	1a
.	.	.	4c	.
2AA	.	.	1f	.
.	4A	.	.	.
2BB-	2d	.	.	1g
2C	4c	.	2e	.
.	4B-	.	.	.
=31	=31	=31	=31	=31
2D	1A	2r	2f	0f
2.F	.	1c	1a	.
.	2r	.	.	.
4E	.	.	.	.
2D	[2F	2B	2f	.
=32	=32	=32	=32	=32
1C	2F]	2.c	2a	2r
.	2E	.	2g	1cc
.	.	4B-	.	.
1r	2F	2A	2f	.
.	2G	2G	2d	2b
=33	=33	=33	=33	=33
2r	2.A	1.F	1f	2.cc
1F	.	.	.	.
.	4G	.	.	4b-
.	4A	.	1c	2a
.	4B-	.	.	.
2E	2c	2G	.	[2g
=34	=34	=34	=34	=34
2F	4A	1A	2c	4g]
.	4F	.	.	4f
2F	1c	.	2A	1f
1C	.	1G	1c	.
.	2G	.	.	2e
=35	=35	=35	=35	=35
[0FF	[0A	[0F	[0c	[0f
=36	=36	=36	=36	=36
0FF]	0A]	0F]	0c]	0f]
==	==	==	==	==
*-	*-	*-	*-	*-
!!!CDT: 1525/^1526/-1594/2/2
!!!OCY: Italia
!!!AGN: Mass (Paraphrase)
!!!AST: renaissance, vocal
!!!ASW: Gregorian Mass
!!!PWK: Masses, Book Mantuan II
!!!RNB: Cadence finals: C
!!!YOR: Le Opere Complete, v. 19, p. 129
!!!YOO: Rome, Italy: Fratelli Scalera
!!!END: 1992//
!!!EED: John Miller
!!!YEC: Copyright 2000, John Miller
!!!YEN: United States of America
!!!YEM: Rights to all derivative electronic formats reserved.
!!!YEM: Refer to licensing agreement for further details.
!!!YEM: This file must be accompanied by the licensing agreement.
!!!YEM: A copy of the licensing agreement may be found at http://www.music-cog.ohio-state.edu/HumdrumDatabases/Palestrina/license.txt
!!!EMD: converted to Humdrum by Bret Aarden
